ummisco.gama.ui.shared/svg/branding/ummisco.gama.feature.models.svg

<svg xmlns="http://www.w3.org/2000/svg" xmlns:xl="http://www.w3.org/1999/xlink" width="48" height="48" version="1.1" viewBox="-472 -3145.185 48 48"><g id="ICONES" fill="none" fill-opacity="1" stroke="none" stroke-dasharray="none" stroke-opacity="1"><title>ICONES</title><g id="ICONES_Calque_1"><title>Calque 1</title><g id="Group_4266"><g id="Graphic_4000"><path fill="#fff" d="M -469 -3145.1854 L -427 -3145.1854 C -425.34315 -3145.1854 -424 -3143.8423 -424 -3142.1854 L -424 -3100.1854 C -424 -3098.5286 -425.34315 -3097.1854 -427 -3097.1854 L -469 -3097.1854 C -470.65685 -3097.1854 -472 -3098.5286 -472 -3100.1854 L -472 -3142.1854 C -472 -3143.8423 -470.65685 -3145.1854 -469 -3145.1854 Z"/></g><g id="Group_3993"><g id="Graphic_3999"><path fill="#efb54f" fill-opacity=".252" d="M -470.60404 -3122.734 L -467.57504 -3122.734 C -467.2233 -3127.2347 -465.3262 -3131.6373 -461.8837 -3135.0797 C -454.21526 -3142.7482 -441.78225 -3142.7482 -434.1138 -3135.0797 C -430.6713 -3131.6373 -428.7742 -3127.2347 -428.4225 -3122.734 L -425.3935 -3122.734 C -425.7505 -3128.0092 -427.9452 -3133.1835 -431.97765 -3137.216 C -440.82587 -3146.064 -455.17165 -3146.064 -464.01986 -3137.216 C -468.0523 -3133.1835 -470.24704 -3128.0092 -470.60404 -3122.734 Z"/><path stroke="#efb64f" stroke-linecap="round" stroke-linejoin="round" stroke-width="0" d="M -470.60404 -3122.734 L -467.57504 -3122.734 C -467.2233 -3127.2347 -465.3262 -3131.6373 -461.8837 -3135.0797 C -454.21526 -3142.7482 -441.78225 -3142.7482 -434.1138 -3135.0797 C -430.6713 -3131.6373 -428.7742 -3127.2347 -428.4225 -3122.734 L -425.3935 -3122.734 C -425.7505 -3128.0092 -427.9452 -3133.1835 -431.97765 -3137.216 C -440.82587 -3146.064 -455.17165 -3146.064 -464.01986 -3137.216 C -468.0523 -3133.1835 -470.24704 -3128.0092 -470.60404 -3122.734 Z"/></g><g id="Graphic_3998"><path fill="#d3673a" fill-opacity=".249" d="M -464.9256 -3122.6968 L -461.8903 -3122.6968 C -461.56134 -3125.7568 -460.22406 -3128.729 -457.87844 -3131.0745 C -452.42204 -3136.531 -443.5755 -3136.531 -438.1191 -3131.0745 C -435.77346 -3128.729 -434.4362 -3125.7568 -434.10724 -3122.6968 L -431.0719 -3122.6968 C -431.4102 -3126.5324 -433.04724 -3130.275 -435.98293 -3133.2106 C -442.6191 -3139.8468 -453.3784 -3139.8468 -460.0146 -3133.2106 C -462.9503 -3130.275 -464.5873 -3126.5324 -464.9256 -3122.6968 Z"/><path stroke="#d2673a" stroke-linecap="round" stroke-linejoin="round" stroke-width="0" d="M -464.9256 -3122.6968 L -461.8903 -3122.6968 C -461.56134 -3125.7568 -460.22406 -3128.729 -457.87844 -3131.0745 C -452.42204 -3136.531 -443.5755 -3136.531 -438.1191 -3131.0745 C -435.77346 -3128.729 -434.4362 -3125.7568 -434.10724 -3122.6968 L -431.0719 -3122.6968 C -431.4102 -3126.5324 -433.04724 -3130.275 -435.98293 -3133.2106 C -442.6191 -3139.8468 -453.3784 -3139.8468 -460.0146 -3133.2106 C -462.9503 -3130.275 -464.5873 -3126.5324 -464.9256 -3122.6968 Z"/></g><g id="Graphic_3997"><path fill="#3570a0" fill-opacity=".25" d="M -459.223 -3122.734 L -456.1634 -3122.734 C -455.8655 -3124.322 -455.1021 -3125.8403 -453.87316 -3127.0692 C -450.6288 -3130.3136 -445.3687 -3130.3136 -442.12435 -3127.0692 C -440.89544 -3125.8403 -440.132 -3124.322 -439.8341 -3122.734 L -436.77453 -3122.734 C -437.09733 -3125.101 -438.16856 -3127.3857 -439.9882 -3129.2053 C -444.4123 -3133.6295 -451.5852 -3133.6295 -456.0093 -3129.2053 C -457.82896 -3127.3857 -458.9002 -3125.101 -459.223 -3122.734 Z"/><path stroke="#3770a0" stroke-linecap="round" stroke-linejoin="round" stroke-width="0" d="M -459.223 -3122.734 L -456.1634 -3122.734 C -455.8655 -3124.322 -455.1021 -3125.8403 -453.87316 -3127.0692 C -450.6288 -3130.3136 -445.3687 -3130.3136 -442.12435 -3127.0692 C -440.89544 -3125.8403 -440.132 -3124.322 -439.8341 -3122.734 L -436.77453 -3122.734 C -437.09733 -3125.101 -438.16856 -3127.3857 -439.9882 -3129.2053 C -444.4123 -3133.6295 -451.5852 -3133.6295 -456.0093 -3129.2053 C -457.82896 -3127.3857 -458.9002 -3125.101 -459.223 -3122.734 Z"/></g><g id="Graphic_3996"><path fill="#d3673a" d="M -464.94556 -3122.734 L -461.9097 -3122.734 C -461.57583 -3125.7844 -460.2395 -3128.746 -457.90076 -3131.0848 C -455.1525 -3133.833 -451.5442 -3135.197 -447.94224 -3135.177 C -446.0555 -3135.1663 -444.1705 -3134.776 -442.4117 -3134.0057 L -441.23095 -3136.7874 C -443.36784 -3137.718 -445.657 -3138.188 -447.94776 -3138.198 C -452.32104 -3138.2167 -456.7002 -3136.5577 -460.0369 -3133.221 C -462.96576 -3130.292 -464.602 -3126.56 -464.94556 -3122.734 Z"/><path stroke="#d2673a" stroke-linecap="round" stroke-linejoin="round" stroke-width="0" d="M -464.94556 -3122.734 L -461.9097 -3122.734 C -461.57583 -3125.7844 -460.2395 -3128.746 -457.90076 -3131.0848 C -455.1525 -3133.833 -451.5442 -3135.197 -447.94224 -3135.177 C -446.0555 -3135.1663 -444.1705 -3134.776 -442.4117 -3134.0057 L -441.23095 -3136.7874 C -443.36784 -3137.718 -445.657 -3138.188 -447.94776 -3138.198 C -452.32104 -3138.2167 -456.7002 -3136.5577 -460.0369 -3133.221 C -462.96576 -3130.292 -464.602 -3126.56 -464.94556 -3122.734 Z"/></g><g id="Graphic_3995"><path fill="#3570a0" d="M -459.1785 -3122.6968 L -456.12287 -3122.6968 C -455.83565 -3124.3136 -455.06744 -3125.8616 -453.81823 -3127.111 C -452.31135 -3128.6177 -450.3696 -3129.4247 -448.397 -3129.5318 L -448.397 -3132.556 C -451.1434 -3132.4468 -453.8576 -3131.3438 -455.9544 -3129.247 C -457.7942 -3127.407 -458.8689 -3125.092 -459.1785 -3122.6968 Z"/><path stroke="#3770a0" stroke-linecap="round" stroke-linejoin="round" stroke-width="0" d="M -459.1785 -3122.6968 L -456.12287 -3122.6968 C -455.83565 -3124.3136 -455.06744 -3125.8616 -453.81823 -3127.111 C -452.31135 -3128.6177 -450.3696 -3129.4247 -448.397 -3129.5318 L -448.397 -3132.556 C -451.1434 -3132.4468 -453.8576 -3131.3438 -455.9544 -3129.247 C -457.7942 -3127.407 -458.8689 -3125.092 -459.1785 -3122.6968 Z"/></g><g id="Graphic_3994"><path fill="#efb54f" d="M -470.6065 -3122.6968 L -467.5779 -3122.6968 C -467.2337 -3127.2104 -465.33566 -3131.628 -461.8837 -3135.0797 C -454.21526 -3142.7482 -441.78225 -3142.7482 -434.1138 -3135.0797 C -433.24983 -3134.2158 -432.4832 -3133.2913 -431.8139 -3132.32 L -429.18996 -3133.835 C -429.9934 -3135.0277 -430.9226 -3136.161 -431.97765 -3137.216 C -440.82587 -3146.064 -455.17165 -3146.064 -464.01986 -3137.216 C -468.06177 -3133.174 -470.2573 -3127.985 -470.6065 -3122.6968 Z"/><path stroke="#efb64f" stroke-linecap="round" stroke-linejoin="round" stroke-width="0" d="M -470.6065 -3122.6968 L -467.5779 -3122.6968 C -467.2337 -3127.2104 -465.33566 -3131.628 -461.8837 -3135.0797 C -454.21526 -3142.7482 -441.78225 -3142.7482 -434.1138 -3135.0797 C -433.24983 -3134.2158 -432.4832 -3133.2913 -431.8139 -3132.32 L -429.18996 -3133.835 C -429.9934 -3135.0277 -430.9226 -3136.161 -431.97765 -3137.216 C -440.82587 -3146.064 -455.17165 -3146.064 -464.01986 -3137.216 C -468.06177 -3133.174 -470.2573 -3127.985 -470.6065 -3122.6968 Z"/></g></g><g id="Group_4150"><title/><g id="Graphic_4137"><path fill="#3770a1" d="M -454.426 -3112.7074 L -454.426 -3119.1154 L -455.56 -3119.1154 L -456.73 -3115.9744 L -457.9 -3119.1154 L -459.025 -3119.1154 L -459.025 -3112.7074 L -457.747 -3112.7074 L -457.747 -3116.0374 L -457.063 -3113.8504 L -456.406 -3113.8504 L -455.704 -3116.0464 L -455.704 -3112.7074 Z"/></g><g id="Graphic_4138"><path fill="#3770a1" d="M -450.43 -3115.1284 C -450.43 -3115.7764 -450.457 -3116.5864 -450.763 -3117.0454 C -451.078 -3117.5134 -451.528 -3117.6214 -452.041 -3117.6214 C -452.554 -3117.6214 -453.004 -3117.5134 -453.319 -3117.0454 C -453.625 -3116.5864 -453.652 -3115.7764 -453.652 -3115.1284 C -453.652 -3114.4804 -453.625 -3113.6704 -453.319 -3113.2114 C -453.004 -3112.7434 -452.554 -3112.6354 -452.041 -3112.6354 C -451.528 -3112.6354 -451.078 -3112.7434 -450.763 -3113.2114 C -450.457 -3113.6704 -450.43 -3114.4804 -450.43 -3115.1284 Z M -451.636 -3115.1284 C -451.636 -3114.5794 -451.636 -3114.1024 -451.726 -3113.9044 C -451.789 -3113.7694 -451.924 -3113.7154 -452.041 -3113.7154 C -452.158 -3113.7154 -452.293 -3113.7694 -452.356 -3113.9044 C -452.446 -3114.1024 -452.446 -3114.5794 -452.446 -3115.1284 C -452.446 -3115.6774 -452.446 -3116.1544 -452.356 -3116.3524 C -452.293 -3116.4874 -452.158 -3116.5414 -452.041 -3116.5414 C -451.924 -3116.5414 -451.789 -3116.4874 -451.726 -3116.3524 C -451.636 -3116.1544 -451.636 -3115.6774 -451.636 -3115.1284 Z"/></g><g id="Graphic_4139"><path fill="#3770a1" d="M -446.677 -3112.7074 L -446.677 -3119.1154 L -447.883 -3119.1154 L -447.883 -3117.2614 C -447.973 -3117.3604 -448.072 -3117.4414 -448.18 -3117.5044 C -448.315 -3117.5764 -448.486 -3117.6214 -448.639 -3117.6214 C -449.035 -3117.6214 -449.305 -3117.5224 -449.539 -3117.2254 C -449.872 -3116.8114 -449.872 -3116.0914 -449.872 -3115.1284 C -449.872 -3114.1654 -449.872 -3113.4454 -449.539 -3113.0314 C -449.305 -3112.7344 -449.035 -3112.6354 -448.639 -3112.6354 C -448.486 -3112.6354 -448.315 -3112.6804 -448.18 -3112.7524 C -448.072 -3112.8154 -447.883 -3112.9684 -447.829 -3113.0584 L -447.829 -3112.7074 Z M -447.883 -3114.1564 C -447.883 -3114.0034 -447.919 -3113.8954 -447.991 -3113.8234 C -448.054 -3113.7514 -448.144 -3113.7154 -448.252 -3113.7154 C -448.378 -3113.7154 -448.486 -3113.7694 -448.558 -3113.8864 C -448.639 -3114.0124 -448.666 -3114.3004 -448.666 -3115.1284 C -448.666 -3115.9564 -448.639 -3116.2444 -448.558 -3116.3704 C -448.486 -3116.4874 -448.378 -3116.5414 -448.252 -3116.5414 C -448.144 -3116.5414 -448.054 -3116.5054 -447.991 -3116.4334 C -447.919 -3116.3614 -447.883 -3116.2534 -447.883 -3116.1004 Z"/></g><g id="Graphic_4140"><path fill="#3770a1" d="M -442.762 -3114.7414 C -442.762 -3115.8574 -442.807 -3116.7484 -443.248 -3117.2074 C -443.59 -3117.5584 -443.95 -3117.6214 -444.373 -3117.6214 C -444.778 -3117.6214 -445.165 -3117.5584 -445.507 -3117.2074 C -445.948 -3116.7484 -445.984 -3115.8574 -445.984 -3115.1284 C -445.984 -3114.3994 -445.948 -3113.5084 -445.507 -3113.0584 C -445.165 -3112.7074 -444.832 -3112.6354 -444.373 -3112.6354 C -443.869 -3112.6354 -443.5 -3112.7524 -443.23 -3113.0494 C -442.915 -3113.3914 -442.807 -3113.7964 -442.789 -3114.2014 L -443.995 -3114.2014 C -443.995 -3114.1204 -444.013 -3113.9764 -444.058 -3113.8954 C -444.121 -3113.7784 -444.22 -3113.7154 -444.373 -3113.7154 C -444.526 -3113.7154 -444.634 -3113.7964 -444.688 -3113.9044 C -444.76 -3114.0394 -444.778 -3114.4174 -444.778 -3114.7414 Z M -443.968 -3115.6144 L -444.778 -3115.6144 C -444.778 -3116.0284 -444.742 -3116.2624 -444.688 -3116.3614 C -444.625 -3116.4784 -444.535 -3116.5414 -444.373 -3116.5414 C -444.211 -3116.5414 -444.121 -3116.4784 -444.058 -3116.3614 C -444.004 -3116.2624 -443.968 -3116.0284 -443.968 -3115.6144 Z"/></g><g id="Graphic_4141"><path fill="#3770a1" d="M -440.296 -3112.7074 L -440.296 -3113.7874 C -440.701 -3113.7874 -440.89 -3113.9674 -440.89 -3114.3454 L -440.89 -3119.1154 L -442.096 -3119.1154 L -442.096 -3114.2644 C -442.096 -3113.6344 -441.88 -3113.2474 -441.538 -3113.0044 C -441.187 -3112.7524 -440.791 -3112.7074 -440.296 -3112.7074 Z"/></g><g id="Graphic_4142"><path fill="#3770a1" d="M -436.714 -3114.1924 C -436.714 -3114.5524 -436.804 -3114.8134 -436.93 -3114.9844 C -437.092 -3115.2094 -437.317 -3115.3624 -437.659 -3115.4974 L -438.325 -3115.7494 C -438.469 -3115.8034 -438.577 -3115.8754 -438.631 -3115.9654 C -438.676 -3116.0284 -438.694 -3116.0914 -438.694 -3116.1814 C -438.694 -3116.2984 -438.667 -3116.3884 -438.595 -3116.4514 C -438.532 -3116.5144 -438.433 -3116.5594 -438.316 -3116.5594 C -438.217 -3116.5594 -438.118 -3116.5144 -438.046 -3116.4424 C -437.983 -3116.3704 -437.947 -3116.2624 -437.947 -3116.1364 L -436.768 -3116.1364 C -436.768 -3116.6314 -436.957 -3116.9734 -437.218 -3117.2254 C -437.488 -3117.4774 -437.893 -3117.6214 -438.316 -3117.6214 C -438.748 -3117.6214 -439.171 -3117.4774 -439.459 -3117.1804 C -439.729 -3116.9014 -439.9 -3116.5864 -439.9 -3116.0644 C -439.9 -3115.7854 -439.846 -3115.5694 -439.738 -3115.3894 C -439.585 -3115.1464 -439.333 -3114.9664 -438.991 -3114.8314 L -438.316 -3114.5704 C -438.181 -3114.5164 -438.073 -3114.4534 -438.001 -3114.3634 C -437.938 -3114.2734 -437.92 -3114.1924 -437.92 -3114.0934 C -437.92 -3113.9944 -437.956 -3113.8774 -438.019 -3113.8234 C -438.109 -3113.7424 -438.181 -3113.7244 -438.307 -3113.7244 C -438.415 -3113.7244 -438.532 -3113.7694 -438.604 -3113.8504 C -438.676 -3113.9224 -438.721 -3114.0304 -438.73 -3114.1654 L -439.918 -3114.1654 C -439.909 -3113.6794 -439.738 -3113.3554 -439.459 -3113.0584 C -439.189 -3112.7794 -438.739 -3112.6354 -438.307 -3112.6354 C -437.875 -3112.6354 -437.488 -3112.7254 -437.173 -3113.0404 C -436.921 -3113.3014 -436.714 -3113.6614 -436.714 -3114.1924 Z"/></g><g id="Graphic_4143"><path fill="#00882b" d="M -456.1135 -3101.4464 L -456.1135 -3102.5984 L -457.7875 -3102.5984 L -457.7875 -3107.8544 L -459.0655 -3107.8544 L -459.0655 -3101.4464 Z"/></g><g id="Graphic_4144"><path fill="#00882b" d="M -454.2775 -3101.4464 L -454.2775 -3106.0994 L -455.4835 -3106.0994 L -455.4835 -3101.4464 Z M -454.2415 -3106.6304 L -454.2415 -3107.9084 L -455.5195 -3107.9084 L -455.5195 -3106.6304 Z"/></g><g id="Graphic_4145"><path fill="#00882b" d="M -452.2975 -3101.4464 L -452.2975 -3101.7974 C -452.2435 -3101.7074 -452.0545 -3101.5544 -451.9465 -3101.4914 C -451.8115 -3101.4194 -451.6405 -3101.3744 -451.4875 -3101.3744 C -451.0915 -3101.3744 -450.8215 -3101.4734 -450.5875 -3101.7704 C -450.2545 -3102.1844 -450.2545 -3102.9044 -450.2545 -3103.8674 C -450.2545 -3104.8304 -450.2545 -3105.5504 -450.5875 -3105.9644 C -450.8215 -3106.2614 -451.0915 -3106.3604 -451.4875 -3106.3604 C -451.6405 -3106.3604 -451.8115 -3106.3154 -451.9465 -3106.2434 C -452.0545 -3106.1804 -452.1535 -3106.0994 -452.2435 -3106.0004 L -452.2435 -3107.8544 L -453.4495 -3107.8544 L -453.4495 -3101.4464 Z M -452.2435 -3104.8394 C -452.2435 -3104.9924 -452.2075 -3105.1004 -452.1355 -3105.1724 C -452.0725 -3105.2444 -451.9825 -3105.2804 -451.8745 -3105.2804 C -451.7485 -3105.2804 -451.6405 -3105.2264 -451.5685 -3105.1094 C -451.4875 -3104.9834 -451.4605 -3104.6954 -451.4605 -3103.8674 C -451.4605 -3103.0394 -451.4875 -3102.7514 -451.5685 -3102.6254 C -451.6405 -3102.5084 -451.7485 -3102.4544 -451.8745 -3102.4544 C -451.9825 -3102.4544 -452.0725 -3102.4904 -452.1355 -3102.5624 C -452.2075 -3102.6344 -452.2435 -3102.7424 -452.2435 -3102.8954 Z"/></g><g id="Graphic_4146"><path fill="#00882b" d="M -447.1675 -3105.1724 L -447.1675 -3106.3604 C -447.4285 -3106.3604 -447.6715 -3106.2974 -447.8785 -3106.1984 C -448.0945 -3106.0904 -448.2745 -3105.9374 -448.4095 -3105.7664 L -448.4095 -3106.2884 L -449.5615 -3106.2884 L -449.5615 -3101.4464 L -448.3555 -3101.4464 L -448.3555 -3104.3984 C -448.3555 -3104.8844 -448.0135 -3105.1724 -447.6085 -3105.1724 Z"/></g><g id="Graphic_4147"><path fill="#00882b" d="M -443.6665 -3101.4464 L -443.6665 -3104.7584 C -443.6665 -3105.3074 -443.8555 -3105.6944 -444.1255 -3105.9644 C -444.4135 -3106.2524 -444.8275 -3106.3604 -445.2415 -3106.3604 C -445.6645 -3106.3604 -446.1235 -3106.1714 -446.3665 -3105.9284 C -446.6815 -3105.6044 -446.8075 -3105.2444 -446.8075 -3104.8484 L -445.6015 -3104.8484 C -445.6015 -3104.9834 -445.5655 -3105.0914 -445.4935 -3105.1814 C -445.4305 -3105.2534 -445.3585 -3105.2984 -445.2325 -3105.2984 C -445.0075 -3105.2984 -444.8725 -3105.1454 -444.8725 -3104.8754 L -444.8725 -3104.3174 L -445.2415 -3104.3174 C -445.8715 -3104.3174 -446.1865 -3104.1824 -446.4295 -3103.9754 C -446.7355 -3103.7144 -446.8975 -3103.3364 -446.8975 -3102.8954 C -446.8975 -3102.4364 -446.8255 -3102.0764 -446.6185 -3101.8244 C -446.3575 -3101.5004 -446.0875 -3101.3744 -445.6375 -3101.3744 C -445.3945 -3101.3744 -445.2505 -3101.4284 -445.1065 -3101.5274 C -444.9805 -3101.6084 -444.8905 -3101.7254 -444.7915 -3101.8424 L -444.7915 -3101.4464 Z M -444.8725 -3102.9494 C -444.8725 -3102.6074 -445.0615 -3102.4274 -445.2775 -3102.4274 C -445.5295 -3102.4274 -445.6915 -3102.5984 -445.6915 -3102.9494 C -445.6915 -3103.0754 -445.6375 -3103.2734 -445.5385 -3103.3634 C -445.4125 -3103.4804 -445.2775 -3103.4804 -445.0795 -3103.4804 L -444.8725 -3103.4804 Z"/></g><g id="Graphic_4148"><path fill="#00882b" d="M -440.4625 -3105.1724 L -440.4625 -3106.3604 C -440.7235 -3106.3604 -440.9665 -3106.2974 -441.1735 -3106.1984 C -441.3895 -3106.0904 -441.5695 -3105.9374 -441.7045 -3105.7664 L -441.7045 -3106.2884 L -442.8565 -3106.2884 L -442.8565 -3101.4464 L -441.6505 -3101.4464 L -441.6505 -3104.3984 C -441.6505 -3104.8844 -441.3085 -3105.1724 -440.9035 -3105.1724 Z"/></g><g id="Graphic_4149"><path fill="#00882b" d="M -436.4755 -3106.2884 L -437.8075 -3106.2884 L -438.3475 -3103.3634 L -438.8875 -3106.2884 L -440.2195 -3106.2884 L -438.9865 -3101.4464 C -439.1125 -3100.9874 -439.2925 -3100.9514 -439.8505 -3100.9334 L -439.8505 -3099.8804 C -438.8875 -3099.8804 -438.1045 -3099.9164 -437.8255 -3101.0054 Z"/></g></g></g></g></g></svg>

<svg xmlns="http://www.w3.org/2000/svg" width="48" height="48" viewBox="-472 -3145.185 48 48"><g fill="none"><path fill="#fff" d="M-469-3145.185h42a3 3 0 0 1 3 3v42a3 3 0 0 1-3 3h-42a3 3 0 0 1-3-3v-42a3 3 0 0 1 3-3Z"/><path fill="#efb54f" fill-opacity=".252" d="M-470.604-3122.734h3.029a19.558 19.558 0 0 1 5.691-12.346c7.669-7.668 20.102-7.668 27.77 0a19.558 19.558 0 0 1 5.691 12.346h3.03a22.57 22.57 0 0 0-6.585-14.482c-8.848-8.848-23.194-8.848-32.042 0a22.57 22.57 0 0 0-6.584 14.482Z"/><path d="M-470.604-3122.734h3.029a19.558 19.558 0 0 1 5.691-12.346c7.669-7.668 20.102-7.668 27.77 0a19.558 19.558 0 0 1 5.691 12.346h3.03a22.57 22.57 0 0 0-6.585-14.482c-8.848-8.848-23.194-8.848-32.042 0a22.57 22.57 0 0 0-6.584 14.482Z"/><path fill="#d3673a" fill-opacity=".249" d="M-464.926-3122.697h3.036a13.913 13.913 0 0 1 4.012-8.378c5.456-5.456 14.303-5.456 19.759 0a13.913 13.913 0 0 1 4.012 8.378h3.035a16.924 16.924 0 0 0-4.91-10.514c-6.637-6.636-17.396-6.636-24.033 0a16.924 16.924 0 0 0-4.91 10.514Z"/><path d="M-464.926-3122.697h3.036a13.913 13.913 0 0 1 4.012-8.378c5.456-5.456 14.303-5.456 19.759 0a13.913 13.913 0 0 1 4.012 8.378h3.035a16.924 16.924 0 0 0-4.91-10.514c-6.637-6.636-17.396-6.636-24.033 0a16.924 16.924 0 0 0-4.91 10.514Z"/><path fill="#3570a0" fill-opacity=".25" d="M-459.223-3122.734h3.06a8.308 8.308 0 0 1 16.33 0h3.058a11.279 11.279 0 0 0-3.213-6.471c-4.424-4.425-11.597-4.425-16.021 0a11.279 11.279 0 0 0-3.214 6.471Z"/><path d="M-459.223-3122.734h3.06a8.308 8.308 0 0 1 16.33 0h3.058a11.279 11.279 0 0 0-3.213-6.471c-4.424-4.425-11.597-4.425-16.021 0a11.279 11.279 0 0 0-3.214 6.471Z"/><path fill="#d3673a" d="M-464.946-3122.734h3.036a13.914 13.914 0 0 1 4.01-8.35 13.93 13.93 0 0 1 9.958-4.093c1.887.01 3.772.401 5.53 1.171l1.181-2.781a17.012 17.012 0 0 0-6.717-1.411 16.94 16.94 0 0 0-12.089 4.977 16.925 16.925 0 0 0-4.909 10.487Z"/><path d="M-464.946-3122.734h3.036a13.914 13.914 0 0 1 4.01-8.35 13.93 13.93 0 0 1 9.958-4.093c1.887.01 3.772.401 5.53 1.171l1.181-2.781a17.012 17.012 0 0 0-6.717-1.411 16.94 16.94 0 0 0-12.089 4.977 16.925 16.925 0 0 0-4.909 10.487Z"/><path fill="#3570a0" d="M-459.178-3122.697h3.055a8.27 8.27 0 0 1 2.305-4.414 8.278 8.278 0 0 1 5.421-2.42v-3.025a11.288 11.288 0 0 0-7.557 3.309 11.28 11.28 0 0 0-3.224 6.55Z"/><path d="M-459.178-3122.697h3.055a8.27 8.27 0 0 1 2.305-4.414 8.278 8.278 0 0 1 5.421-2.42v-3.025a11.288 11.288 0 0 0-7.557 3.309 11.28 11.28 0 0 0-3.224 6.55Z"/><path fill="#efb54f" d="M-470.606-3122.697h3.028a19.559 19.559 0 0 1 5.694-12.383c7.669-7.668 20.102-7.668 27.77 0 .864.864 1.63 1.789 2.3 2.76l2.624-1.515a22.77 22.77 0 0 0-2.788-3.381c-8.848-8.848-23.194-8.848-32.042 0a22.57 22.57 0 0 0-6.587 14.52Z"/><path d="M-470.606-3122.697h3.028a19.559 19.559 0 0 1 5.694-12.383c7.669-7.668 20.102-7.668 27.77 0 .864.864 1.63 1.789 2.3 2.76l2.624-1.515a22.77 22.77 0 0 0-2.788-3.381c-8.848-8.848-23.194-8.848-32.042 0a22.57 22.57 0 0 0-6.587 14.52Z"/><path fill="#3770a1" d="M-454.426-3112.707v-6.408h-1.134l-1.17 3.14-1.17-3.14h-1.125v6.408h1.278v-3.33l.684 2.187h.657l.702-2.196v3.339ZM-450.43-3115.128c0-.648-.027-1.458-.333-1.917-.315-.468-.765-.576-1.278-.576s-.963.108-1.278.576c-.306.459-.333 1.269-.333 1.917 0 .648.027 1.458.333 1.917.315.468.765.576 1.278.576s.963-.108 1.278-.576c.306-.46.333-1.27.333-1.917Zm-1.206 0c0 .549 0 1.026-.09 1.224a.34.34 0 0 1-.315.189.34.34 0 0 1-.315-.19c-.09-.197-.09-.674-.09-1.223 0-.55 0-1.026.09-1.224a.34.34 0 0 1 .315-.19.34.34 0 0 1 .315.19c.09.198.09.675.09 1.224ZM-446.677-3112.707v-6.408h-1.206v1.854a1.257 1.257 0 0 0-.297-.243 1.022 1.022 0 0 0-.459-.117c-.396 0-.666.099-.9.396-.333.414-.333 1.134-.333 2.097 0 .963 0 1.683.333 2.097.234.297.504.396.9.396.153 0 .324-.045.459-.117.108-.063.297-.216.351-.306v.35Zm-1.206-1.45c0 .154-.036.262-.108.334a.333.333 0 0 1-.261.108.343.343 0 0 1-.306-.171c-.081-.126-.108-.414-.108-1.242 0-.828.027-1.116.108-1.242a.343.343 0 0 1 .306-.171c.108 0 .198.036.261.108.072.072.108.18.108.333ZM-442.762-3114.741c0-1.116-.045-2.007-.486-2.466-.342-.351-.702-.414-1.125-.414-.405 0-.792.063-1.134.414-.441.459-.477 1.35-.477 2.079 0 .729.036 1.62.477 2.07.342.35.675.423 1.134.423.504 0 .873-.117 1.143-.414.315-.342.423-.747.441-1.152h-1.206a.746.746 0 0 1-.063.306c-.063.117-.162.18-.315.18a.34.34 0 0 1-.315-.19c-.072-.134-.09-.512-.09-.836Zm-1.206-.873h-.81c0-.414.036-.648.09-.747.063-.117.153-.18.315-.18s.252.063.315.18c.054.099.09.333.09.747ZM-440.296-3112.707v-1.08c-.405 0-.594-.18-.594-.558v-4.77h-1.206v4.85c0 .63.216 1.018.558 1.26.351.253.747.298 1.242.298ZM-436.714-3114.192c0-.36-.09-.621-.216-.792-.162-.225-.387-.378-.729-.513l-.666-.252c-.144-.054-.252-.126-.306-.216a.341.341 0 0 1-.063-.216c0-.117.027-.207.099-.27a.394.394 0 0 1 .549.009c.063.072.099.18.099.306h1.179a1.44 1.44 0 0 0-.45-1.09c-.27-.251-.675-.395-1.098-.395-.432 0-.855.144-1.143.44-.27.28-.441.595-.441 1.117 0 .279.054.495.162.675.153.243.405.423.747.558l.675.26a.741.741 0 0 1 .315.208c.063.09.081.17.081.27 0 .099-.036.216-.099.27-.09.08-.162.099-.288.099a.408.408 0 0 1-.297-.126.481.481 0 0 1-.126-.315h-1.188c.009.486.18.81.459 1.107.27.279.72.423 1.152.423.432 0 .819-.09 1.134-.405.252-.261.459-.621.459-1.152Z"/><path fill="#00882b" d="M-456.113-3101.446v-1.152h-1.675v-5.256h-1.277v6.408ZM-454.277-3101.446v-4.653h-1.207v4.653Zm.036-5.184v-1.278h-1.279v1.278ZM-452.298-3101.446v-.351c.055.09.243.243.351.306.135.072.307.117.46.117.396 0 .666-.1.9-.396.332-.414.332-1.134.332-2.097 0-.963 0-1.683-.332-2.097-.235-.297-.505-.396-.9-.396-.153 0-.325.045-.46.117a1.257 1.257 0 0 0-.296.243v-1.854h-1.207v6.408Zm.055-3.393c0-.153.036-.261.108-.333a.333.333 0 0 1 .26-.108c.127 0 .235.054.307.17.08.127.107.415.107 1.243 0 .828-.026 1.116-.107 1.242a.343.343 0 0 1-.307.17.333.333 0 0 1-.26-.107c-.072-.072-.108-.18-.108-.333ZM-447.168-3105.172v-1.188c-.26 0-.503.063-.71.162a1.58 1.58 0 0 0-.531.432v-.522h-1.153v4.842h1.207v-2.952c0-.486.341-.774.747-.774ZM-443.666-3101.446v-3.312c0-.55-.19-.936-.46-1.206-.288-.288-.702-.396-1.115-.396-.423 0-.882.189-1.125.432a1.481 1.481 0 0 0-.442 1.08h1.207a.51.51 0 0 1 .108-.333.314.314 0 0 1 .26-.117c.226 0 .36.153.36.423v.558h-.368c-.63 0-.946.135-1.189.342-.305.26-.467.639-.467 1.08 0 .459.072.819.279 1.07.26.325.53.45.98.45a.847.847 0 0 0 .531-.152c.127-.081.217-.198.316-.315v.396Zm-1.207-1.503c0 .342-.189.522-.404.522-.252 0-.415-.171-.415-.522 0-.126.055-.324.154-.414.125-.117.26-.117.459-.117h.207ZM-440.462-3105.172v-1.188c-.262 0-.505.063-.712.162a1.58 1.58 0 0 0-.53.432v-.522h-1.152v4.842h1.205v-2.952c0-.486.343-.774.748-.774ZM-436.476-3106.288h-1.332l-.54 2.925-.54-2.925h-1.332l1.234 4.842c-.127.459-.307.495-.865.513v1.053c.964 0 1.747-.036 2.026-1.125Z"/></g></svg>
